X:1
T:Polska från södra Lappland efter Alfred Nilsson
R:Polska
S:Utlärd av David Eriksson
O:Lappland
C:Alfred Nilsson
Z:ABC-transkribering av Jonas Hallgren
M:3/4
L:1/8
K:Dm
|: d>^c c<A A2 | d>e (3fed ^c>d | (3efe (3deg (3fed |
   d^c cA A2 | d>e (3fed ^c>d  | e/2g/2e/2^c/2 d4 :| 
|: A2 a2- a>e | a>a c'c' d'>d' | a>a (3e^fg f>d | (3e^fe (3dfd (3cec |
   A2 {g}(a2 {=b}a)>e | a>a c'c' d'>d' | a>a (3e^fg f>d | (3e^fe d4 :|

